en/_assets/wiki/svg/edited-icon.svg

<svg xmlns="http://www.w3.org/2000/svg" xmlns:xlink="http://www.w3.org/1999/xlink" width="18" height="18" class="yc-icon nv-composite-bar__menu-icon" fill="currentColor" stroke="none" aria-hidden="true"><svg viewBox="0 0 18 16" xmlns="http://www.w3.org/2000/svg"><path d="M13.4688 9.14062L15.2969 10.9688L12.123 14.1426C12.0469 14.2188 11.9707 14.2441 11.8945 14.2695L10.0664 14.625C9.91406 14.6758 9.76172 14.5234 9.8125 14.3711L10.168 12.543C10.1934 12.4668 10.2188 12.3906 10.2949 12.3145L13.4688 9.14062ZM16.8457 8.125L16.3125 7.5918C15.957 7.23633 15.373 7.23633 15.0176 7.5918L14.0527 8.55664L15.8809 10.3848L16.8457 9.41992C17.2012 9.06445 17.2012 8.48047 16.8457 8.125ZM10.0156 14.625H10.041C10.0156 14.6504 9.99023 14.625 9.96484 14.625C9.99023 14.625 10.0156 14.625 10.0156 14.625ZM3.3125 4.875C3.3125 3.09766 4.75977 1.625 6.53711 1.625C8.28906 1.625 9.78711 3.09766 9.78711 4.875C9.78711 6.67773 8.31445 8.125 6.53711 8.125C4.73438 8.125 3.3125 6.67773 3.3125 4.875ZM4.53125 4.875C4.53125 6.01758 5.41992 6.90625 6.5625 6.90625C7.67969 6.90625 8.59375 6.01758 8.59375 4.875C8.59375 3.75781 7.67969 2.84375 6.5625 2.84375C5.41992 2.84375 4.53125 3.75781 4.53125 4.875ZM9.15234 13.4062H2.11914C2.29688 11.8066 3.66797 10.5625 5.34375 10.5625H7.78125C8.61914 10.5625 9.40625 10.918 9.99023 11.4766L10.8535 10.6133C10.0664 9.82617 8.97461 9.34375 7.78125 9.34375H5.34375C2.85547 9.34375 0.875 11.3496 0.875 13.8125C0.875 14.2695 1.23047 14.625 1.6875 14.625H9.02539C8.97461 14.498 8.97461 14.3457 9 14.1934L9.15234 13.4062Z"></path></svg></svg>

<svg xmlns="http://www.w3.org/2000/svg" width="18" height="18" fill="currentColor" aria-hidden="true" class="yc-icon nv-composite-bar__menu-icon"><svg xmlns="http://www.w3.org/2000/svg" viewBox="0 0 18 16"><path d="m13.469 9.14 1.828 1.829-3.174 3.174c-.076.076-.152.101-.228.127l-1.829.355c-.152.05-.304-.102-.254-.254l.356-1.828c.025-.076.05-.152.127-.228l3.174-3.174Zm3.377-1.015-.534-.533a.92.92 0 0 0-1.294 0l-.965.965 1.828 1.828.965-.965a.92.92 0 0 0 0-1.295Zm-6.83 6.5h.025c-.025.025-.05 0-.076 0h.05Zm-6.704-9.75c0-1.777 1.448-3.25 3.225-3.25 1.752 0 3.25 1.473 3.25 3.25a3.256 3.256 0 0 1-3.25 3.25c-1.803 0-3.224-1.447-3.224-3.25Zm1.22 0c0 1.143.888 2.031 2.03 2.031a2.021 2.021 0 0 0 2.032-2.031 2.037 2.037 0 0 0-2.031-2.031A2.021 2.021 0 0 0 4.53 4.875Zm4.62 8.531H2.12c.178-1.6 1.549-2.844 3.225-2.844H7.78c.838 0 1.625.356 2.21.915l.863-.864a4.338 4.338 0 0 0-3.073-1.27H5.344a4.46 4.46 0 0 0-4.469 4.47c0 .457.355.812.813.812h7.337A.817.817 0 0 1 9 14.193l.152-.787Z"/></svg></svg>
